;FLAVOR:UltiGCode
;TIME:6155
;MATERIAL:13620
;MATERIAL2:0

;Layer count: 68
;LAYER:0
M107
G0 F9000 X28.065 Y25.383 Z0.300
;TYPE:SKIRT
G1 F1200 X-28.070 Y25.383 E6.73620
G1 X-28.679 Y25.378 E6.80928
G1 X-30.463 Y25.371 E7.02336
G1 X-31.095 Y25.362 E7.09921
G1 X-32.562 Y25.339 E7.27527
G1 X-33.314 Y25.324 E7.36553
G1 X-35.230 Y25.268 E7.59555
G1 X-36.142 Y25.232 E7.70507
G1 X-37.431 Y25.175 E7.85991
G1 X-38.057 Y25.140 E7.93514
G1 X-39.554 Y25.049 E8.11511
G1 X-40.783 Y24.954 E8.26303
G1 X-41.590 Y24.888 E8.36020
G1 X-42.189 Y24.833 E8.43238
G1 X-43.332 Y24.718 E8.57023
G1 X-44.162 Y24.613 E8.67063
G1 X-46.049 Y24.241 E8.90143
G1 X-47.320 Y23.843 E9.06125
G1 X-47.833 Y23.688 E9.12556
G1 X-48.558 Y23.380 E9.22008
G1 X-49.675 Y22.894 E9.36626
G1 X-49.971 Y22.749 E9.40581
G1 X-51.518 Y21.863 E9.61974
G1 X-52.960 Y20.833 E9.83239
G1 X-53.399 Y20.476 E9.90029
G1 X-54.583 Y19.402 E10.09212
G1 X-54.773 Y19.213 E10.12428
G1 X-55.641 Y18.245 E10.28030
G1 X-56.192 Y17.586 E10.38338
G1 X-57.033 Y16.413 E10.55658
G1 X-57.476 Y15.679 E10.65946
G1 X-58.164 Y14.469 E10.82649
G1 X-58.908 Y12.768 E11.04928
G1 X-59.152 Y12.013 E11.14449
G1 X-59.559 Y10.716 E11.30761
G1 X-59.939 Y8.813 E11.54048
G1 X-60.108 Y7.027 E11.75576
G1 X-60.126 Y6.297 E11.84339
G1 X-60.132 Y1.795 E12.38363
G1 X-60.131 Y-1.708 E12.80399
G1 X-60.132 Y-6.498 E13.37879
G1 X-60.078 Y-7.837 E13.53960
G1 X-59.829 Y-9.795 E13.77645
G1 X-59.456 Y-11.357 E13.96916
G1 X-59.333 Y-11.814 E14.02595
G1 X-58.905 Y-13.036 E14.18133
G1 X-58.650 Y-13.698 E14.26646
G1 X-58.152 Y-14.783 E14.40972
G1 X-57.589 Y-15.840 E14.55343
G1 X-57.055 Y-16.729 E14.67787
G1 X-56.654 Y-17.329 E14.76447
G1 X-56.486 Y-17.577 E14.80042
G1 X-56.020 Y-18.208 E14.89455
G1 X-55.570 Y-18.773 E14.98123
G1 X-55.098 Y-19.327 E15.06856
G1 X-54.614 Y-19.862 E15.15514
G1 X-54.022 Y-20.453 E15.25552
G1 X-53.501 Y-20.929 E15.34020
G1 X-53.187 Y-21.210 E15.39077
G1 X-52.624 Y-21.666 E15.47771
G1 X-51.888 Y-22.213 E15.58775
G1 X-51.139 Y-22.713 E15.69581
G1 X-50.204 Y-23.265 E15.82611
G1 X-49.222 Y-23.766 E15.95840
G1 X-48.557 Y-24.056 E16.04546
G1 X-47.690 Y-24.392 E16.15704
G1 X-46.987 Y-24.620 E16.24572
G1 X-46.033 Y-24.887 E16.36460
G1 X-45.373 Y-25.032 E16.44569
G1 X-44.695 Y-25.165 E16.52860
G1 X-43.876 Y-25.274 E16.62775
G1 X-43.074 Y-25.346 E16.72437
G1 X-41.980 Y-25.387 E16.85575
G1 X41.948 Y-25.387 E26.92711
G1 X42.713 Y-25.369 E27.01893
G1 X43.476 Y-25.314 E27.11073
G1 X44.408 Y-25.207 E27.22330
G1 X45.270 Y-25.058 E27.32828
G1 X46.142 Y-24.861 E27.43555
G1 X47.092 Y-24.594 E27.55397
G1 X48.165 Y-24.219 E27.69037
G1 X48.870 Y-23.921 E27.78222
G1 X49.906 Y-23.425 E27.92005
G1 X50.131 Y-23.304 E27.95071
G1 X50.803 Y-22.924 E28.04335
G1 X51.443 Y-22.516 E28.13442
G1 X52.332 Y-21.895 E28.26455
G1 X52.955 Y-21.399 E28.36011
G1 X53.510 Y-20.924 E28.44778
G1 X54.415 Y-20.064 E28.59759
G1 X55.062 Y-19.369 E28.71154
G1 X55.556 Y-18.792 E28.80269
G1 X56.012 Y-18.218 E28.89066
G1 X56.432 Y-17.650 E28.97543
G1 X57.050 Y-16.736 E29.10782
G1 X57.597 Y-15.825 E29.23534
G1 X58.018 Y-15.045 E29.34170
G1 X58.659 Y-13.682 E29.52244
G1 X59.185 Y-12.234 E29.70731
G1 X59.373 Y-11.699 E29.77536
G1 X59.826 Y-9.817 E30.00765
G1 X60.027 Y-8.280 E30.19366
G1 X60.074 Y-7.922 E30.23699
G1 X60.121 Y-6.743 E30.37858
G1 X60.132 Y-1.712 E30.98231
G1 X60.131 Y1.793 E31.40291
G1 X60.132 Y6.162 E31.92719
G1 X60.108 Y7.029 E32.03127
G1 X59.948 Y8.744 E32.23796
G1 X59.670 Y10.181 E32.41360
G1 X59.470 Y11.022 E32.51733
G1 X59.067 Y12.318 E32.68020
G1 X58.878 Y12.838 E32.74659
G1 X58.164 Y14.469 E32.96024
G1 X57.535 Y15.576 E33.11303
G1 X57.264 Y16.067 E33.18033
G1 X56.801 Y16.725 E33.27688
G1 X56.008 Y17.829 E33.43999
G1 X54.708 Y19.286 E33.67431
G1 X53.402 Y20.473 E33.88609
G1 X52.962 Y20.831 E33.95416
G1 X51.544 Y21.846 E34.16342
G1 X50.305 Y22.555 E34.33472
G1 X49.546 Y22.957 E34.43779
G1 X48.300 Y23.500 E34.60089
G1 X47.787 Y23.700 E34.66696
G1 X46.078 Y24.233 E34.88178
G1 X44.326 Y24.590 E35.09634
G1 X43.488 Y24.701 E35.19778
G1 X42.076 Y24.845 E35.36810
G1 X40.637 Y24.967 E35.54140
G1 X40.050 Y25.012 E35.61205
G1 X38.619 Y25.108 E35.78415
G1 X37.783 Y25.155 E35.88463
G1 X36.405 Y25.222 E36.05019
G1 X34.977 Y25.275 E36.22166
G1 X34.085 Y25.305 E36.32876
G1 X33.439 Y25.320 E36.40630
G1 X31.624 Y25.356 E36.62415
G1 X31.086 Y25.364 E36.68871
G1 X30.368 Y25.368 E36.77488
G1 X28.065 Y25.383 E37.05124
G0 F9000 X28.064 Y24.983
G1 F1200 X-28.068 Y24.983 E43.78708
G1 X-28.676 Y24.978 E43.86004
G1 X-30.460 Y24.971 E44.07413
G1 X-31.089 Y24.962 E44.14961
G1 X-32.555 Y24.939 E44.32556
G1 X-33.304 Y24.924 E44.41545
G1 X-35.216 Y24.869 E44.64499
G1 X-36.125 Y24.832 E44.75416
G1 X-37.411 Y24.775 E44.90863
G1 X-38.034 Y24.740 E44.98351
G1 X-39.526 Y24.650 E45.16287
G1 X-40.751 Y24.556 E45.31031
G1 X-41.555 Y24.490 E45.40711
G1 X-42.150 Y24.435 E45.47881
G1 X-43.287 Y24.321 E45.61594
G1 X-44.098 Y24.218 E45.71404
G1 X-45.950 Y23.852 E45.94058
G1 X-47.228 Y23.453 E46.10124
G1 X-47.697 Y23.311 E46.16004
G1 X-48.400 Y23.012 E46.25172
G1 X-49.507 Y22.530 E46.39660
G1 X-49.784 Y22.395 E46.43358
G1 X-51.302 Y21.526 E46.64348
G1 X-52.717 Y20.515 E46.85216
G1 X-53.138 Y20.173 E46.91725
G1 X-54.307 Y19.113 E47.10661
G1 X-54.482 Y18.937 E47.13640
G1 X-55.338 Y17.983 E47.29021
G1 X-55.875 Y17.341 E47.39064
G1 X-56.699 Y16.193 E47.56022
G1 X-57.131 Y15.476 E47.66067
G1 X-57.806 Y14.290 E47.82442
G1 X-58.533 Y12.626 E48.04233
G1 X-58.771 Y11.891 E48.13504
G1 X-59.171 Y10.617 E48.29528
G1 X-59.543 Y8.755 E48.52313
G1 X-59.708 Y7.003 E48.73430
G1 X-59.726 Y6.292 E48.81965
G1 X-59.732 Y1.795 E49.35929
G1 X-59.731 Y-1.708 E49.77965
G1 X-59.732 Y-6.490 E50.35349
G1 X-59.679 Y-7.804 E50.51130
G1 X-59.435 Y-9.723 E50.74343
G1 X-59.068 Y-11.258 E50.93282
G1 X-58.951 Y-11.696 E50.98723
G1 X-58.529 Y-12.898 E51.14010
G1 X-58.281 Y-13.543 E51.22302
G1 X-57.794 Y-14.606 E51.36333
G1 X-57.241 Y-15.643 E51.50436
G1 X-56.717 Y-16.515 E51.62644
G1 X-56.322 Y-17.106 E51.71174
G1 X-56.159 Y-17.346 E51.74656
G1 X-55.703 Y-17.965 E51.83882
G1 X-55.261 Y-18.518 E51.92377
G1 X-54.797 Y-19.063 E52.00966
G1 X-54.324 Y-19.586 E52.09428
G1 X-53.746 Y-20.163 E52.19228
G1 X-53.233 Y-20.632 E52.27569
G1 X-52.928 Y-20.905 E52.32481
G1 X-52.379 Y-21.350 E52.40962
G1 X-51.657 Y-21.886 E52.51752
G1 X-50.926 Y-22.374 E52.62299
G1 X-50.011 Y-22.915 E52.75055
G1 X-49.051 Y-23.404 E52.87983
G1 X-48.405 Y-23.686 E52.96442
G1 X-47.556 Y-24.015 E53.07368
G1 X-46.871 Y-24.237 E53.16009
G1 X-45.937 Y-24.499 E53.27650
G1 X-45.291 Y-24.640 E53.35584
G1 X-44.630 Y-24.770 E53.43668
G1 X-43.832 Y-24.876 E53.53328
G1 X-43.049 Y-24.946 E53.62762
G1 X-41.973 Y-24.987 E53.75683
G1 X41.943 Y-24.987 E63.82675
G1 X42.693 Y-24.970 E63.91677
G1 X43.439 Y-24.915 E64.00654
G1 X44.351 Y-24.811 E64.11669
G1 X45.192 Y-24.665 E64.21911
G1 X46.044 Y-24.473 E64.32392
G1 X46.972 Y-24.212 E64.43960
G1 X48.021 Y-23.846 E64.57292
G1 X48.705 Y-23.556 E64.66207
G1 X49.725 Y-23.068 E64.79776
G1 X49.937 Y-22.954 E64.82665
G1 X50.597 Y-22.581 E64.91762
G1 X51.221 Y-22.183 E65.00643
G1 X52.092 Y-21.574 E65.13397
G1 X52.700 Y-21.091 E65.22715
G1 X53.242 Y-20.627 E65.31277
G1 X54.131 Y-19.783 E65.45987
G1 X54.764 Y-19.102 E65.57144
G1 X55.247 Y-18.538 E65.66054
G1 X55.695 Y-17.974 E65.74698
G1 X56.106 Y-17.419 E65.82985
G1 X56.712 Y-16.521 E65.95985
G1 X57.249 Y-15.627 E66.08500
G1 X57.661 Y-14.864 E66.18905
G1 X58.289 Y-13.529 E66.36609
G1 X58.808 Y-12.099 E66.54865
G1 X58.989 Y-11.586 E66.61392
G1 X59.432 Y-9.744 E66.84127
G1 X59.630 Y-8.229 E67.02461
G1 X59.675 Y-7.888 E67.06589
G1 X59.721 Y-6.735 E67.20436
G1 X59.732 Y-1.712 E67.80712
G1 X59.731 Y1.793 E68.22772
G1 X59.732 Y6.157 E68.75140
G1 X59.709 Y7.005 E68.85320
G1 X59.551 Y8.687 E69.05593
G1 X59.278 Y10.096 E69.22815
G1 X59.084 Y10.916 E69.32927
G1 X58.687 Y12.190 E69.48940
G1 X58.506 Y12.690 E69.55321
G1 X57.806 Y14.290 E69.76278
G1 X57.158 Y15.430 E69.92013
G1 X56.925 Y15.854 E69.97819
G1 X56.475 Y16.493 E70.07198
G1 X55.696 Y17.578 E70.23226
G1 X54.424 Y19.004 E70.46156
G1 X53.141 Y20.170 E70.66961
G1 X52.719 Y20.513 E70.73486
G1 X51.328 Y21.509 E70.94016
G1 X50.112 Y22.205 E71.10829
G1 X49.372 Y22.597 E71.20878
G1 X48.148 Y23.130 E71.36899
G1 X47.655 Y23.322 E71.43247
G1 X45.979 Y23.845 E71.64316
G1 X44.260 Y24.195 E71.85367
G1 X43.441 Y24.304 E71.95282
G1 X42.039 Y24.447 E72.12193
G1 X40.605 Y24.568 E72.29462
G1 X40.021 Y24.613 E72.36491
G1 X38.595 Y24.708 E72.53641
G1 X37.762 Y24.756 E72.63653
G1 X36.388 Y24.822 E72.80160
G1 X34.963 Y24.875 E72.97272
G1 X34.074 Y24.905 E73.07946
G1 X33.431 Y24.920 E73.15664
G1 X31.617 Y24.956 E73.37437
G1 X31.082 Y24.964 E73.43857
G1 X30.365 Y24.968 E73.52462
G1 X28.064 Y24.983 E73.80074
G0 F9000 X28.063 Y24.583
G1 F1200 X-28.066 Y24.583 E80.53622
G1 X-28.672 Y24.578 E80.60894
G1 X-30.456 Y24.571 E80.82303
G1 X-31.083 Y24.562 E80.89827
G1 X-32.548 Y24.539 E81.07410
G1 X-33.294 Y24.524 E81.16363
G1 X-35.203 Y24.469 E81.39281
G1 X-36.108 Y24.433 E81.50149
G1 X-37.391 Y24.376 E81.65561
G1 X-38.010 Y24.341 E81.73000
G1 X-39.499 Y24.251 E81.90901
G1 X-40.719 Y24.157 E82.05584
G1 X-41.520 Y24.091 E82.15229
G1 X-42.112 Y24.036 E82.22364
G1 X-43.242 Y23.923 E82.35991
G1 X-44.034 Y23.823 E82.45571
G1 X-45.851 Y23.464 E82.67796
G1 X-47.109 Y23.071 E82.83612
G1 X-47.560 Y22.935 E82.89264
G1 X-48.242 Y22.645 E82.98158
G1 X-49.340 Y22.167 E83.12528
G1 X-49.597 Y22.042 E83.15957
G1 X-51.086 Y21.189 E83.36550
G1 X-52.475 Y20.197 E83.57032
G1 X-52.877 Y19.869 E83.63258
G1 X-54.031 Y18.823 E83.81948
G1 X-54.192 Y18.662 E83.84680
G1 X-55.036 Y17.721 E83.99849
G1 X-55.559 Y17.095 E84.09638
G1 X-56.365 Y15.973 E84.26216
G1 X-56.786 Y15.274 E84.36008
G1 X-57.448 Y14.110 E84.52077
G1 X-58.159 Y12.484 E84.73372
G1 X-58.390 Y11.770 E84.82378
G1 X-58.783 Y10.518 E84.98124
G1 X-59.147 Y8.696 E85.20420
G1 X-59.309 Y6.979 E85.41116
G1 X-59.326 Y6.287 E85.49422
G1 X-59.332 Y1.795 E86.03327
G1 X-59.331 Y-1.708 E86.45363
G1 X-59.332 Y-6.482 E87.02651
G1 X-59.280 Y-7.770 E87.18119
G1 X-59.041 Y-9.651 E87.40873
G1 X-58.680 Y-11.160 E87.59492
G1 X-58.568 Y-11.578 E87.64684
G1 X-58.154 Y-12.760 E87.79713
G1 X-57.913 Y-13.388 E87.87785
G1 X-57.435 Y-14.428 E88.01520
G1 X-56.892 Y-15.446 E88.15365
G1 X-56.379 Y-16.300 E88.27320
G1 X-55.990 Y-16.882 E88.35721
G1 X-55.832 Y-17.115 E88.39099
G1 X-55.386 Y-17.721 E88.48128
G1 X-54.953 Y-18.264 E88.56462
G1 X-54.497 Y-18.799 E88.64898
G1 X-54.034 Y-19.310 E88.73172
G1 X-53.469 Y-19.874 E88.82752
G1 X-52.964 Y-20.335 E88.90958
G1 X-52.668 Y-20.600 E88.95725
G1 X-52.134 Y-21.034 E89.03983
G1 X-51.427 Y-21.559 E89.14550
G1 X-50.713 Y-22.035 E89.24847
G1 X-49.818 Y-22.564 E89.37323
G1 X-48.880 Y-23.043 E89.49962
G1 X-48.252 Y-23.316 E89.58179
G1 X-47.422 Y-23.638 E89.68862
G1 X-46.756 Y-23.855 E89.77268
G1 X-45.840 Y-24.111 E89.88681
G1 X-45.210 Y-24.248 E89.96418
G1 X-44.565 Y-24.375 E90.04306
G1 X-43.788 Y-24.479 E90.13714
G1 X-43.023 Y-24.547 E90.22930
G1 X-41.965 Y-24.587 E90.35635
G1 X41.939 Y-24.587 E100.42483
G1 X42.674 Y-24.570 E100.51305
G1 X43.402 Y-24.517 E100.60064
G1 X44.294 Y-24.415 E100.70838
G1 X45.114 Y-24.273 E100.80824
G1 X45.946 Y-24.085 E100.91060
G1 X46.852 Y-23.830 E101.02355
G1 X47.877 Y-23.472 E101.15383
G1 X48.541 Y-23.191 E101.24035
G1 X49.544 Y-22.712 E101.37373
G1 X49.744 Y-22.604 E101.40101
G1 X50.391 Y-22.238 E101.49021
G1 X50.998 Y-21.851 E101.57660
G1 X51.853 Y-21.253 E101.70180
G1 X52.446 Y-20.782 E101.79268
G1 X52.974 Y-20.330 E101.87608
G1 X53.847 Y-19.501 E102.02055
G1 X54.465 Y-18.836 E102.12949
G1 X54.939 Y-18.283 E102.21689
G1 X55.377 Y-17.731 E102.30145
G1 X55.779 Y-17.188 E102.38252
G1 X56.375 Y-16.306 E102.51026
G1 X56.902 Y-15.429 E102.63304
G1 X57.303 Y-14.684 E102.73457
G1 X57.919 Y-13.375 E102.90817
G1 X58.432 Y-11.964 E103.08834
G1 X58.605 Y-11.472 E103.15092
G1 X59.038 Y-9.671 E103.37320
G1 X59.234 Y-8.177 E103.55401
G1 X59.276 Y-7.854 E103.59310
G1 X59.321 Y-6.726 E103.72857
G1 X59.332 Y-1.711 E104.33037
G1 X59.331 Y1.793 E104.75085
G1 X59.332 Y6.152 E105.27393
G1 X59.309 Y6.981 E105.37345
G1 X59.155 Y8.630 E105.57219
G1 X58.887 Y10.012 E105.74112
G1 X58.698 Y10.810 E105.83953
G1 X58.308 Y12.062 E105.99689
G1 X58.134 Y12.541 E106.05804
G1 X57.448 Y14.110 E106.26353
G1 X56.810 Y15.233 E106.41852
G1 X56.585 Y15.642 E106.47454
G1 X56.149 Y16.262 E106.56549
G1 X55.383 Y17.328 E106.72301
G1 X54.139 Y18.722 E106.94722
G1 X52.880 Y19.866 E107.15135
G1 X52.476 Y20.195 E107.21387
G1 X51.112 Y21.172 E107.41521
G1 X49.918 Y21.854 E107.58022
G1 X49.199 Y22.236 E107.67792
G1 X47.995 Y22.761 E107.83554
G1 X47.523 Y22.945 E107.89633
G1 X45.879 Y23.457 E108.10295
G1 X44.194 Y23.800 E108.30930
G1 X43.395 Y23.907 E108.40604
G1 X42.002 Y24.049 E108.57406
G1 X40.573 Y24.169 E108.74615
G1 X39.993 Y24.214 E108.81596
G1 X38.570 Y24.309 E108.98710
G1 X37.741 Y24.356 E109.08673
G1 X36.371 Y24.423 E109.25133
G1 X34.949 Y24.476 E109.42209
G1 X34.063 Y24.506 E109.52847
G1 X33.422 Y24.520 E109.60541
G1 X31.610 Y24.557 E109.82289
G1 X31.078 Y24.564 E109.88674
G1 X30.363 Y24.568 E109.97254
G1 X28.063 Y24.583 E110.24855
G0 F9000 X28.061 Y24.183
G1 F1200 X-28.065 Y24.183 E116.98367
G1 X-28.669 Y24.178 E117.05615
G1 X-30.452 Y24.171 E117.27011
G1 X-32.540 Y24.140 E117.52070
G1 X-33.284 Y24.124 E117.61000
G1 X-35.189 Y24.069 E117.83869
G1 X-36.091 Y24.033 E117.94702
G1 X-37.371 Y23.976 E118.10077
G1 X-37.987 Y23.942 E118.17481
G1 X-39.472 Y23.852 E118.35333
G1 X-40.688 Y23.758 E118.49969
G1 X-41.485 Y23.693 E118.59565
G1 X-42.073 Y23.638 E118.66651
G1 X-43.197 Y23.526 E118.80206
G1 X-43.970 Y23.428 E118.89556
G1 X-45.753 Y23.076 E119.11365
G1 X-46.989 Y22.689 E119.26907
G1 X-47.424 Y22.558 E119.32359
G1 X-48.084 Y22.278 E119.40962
G1 X-49.172 Y21.804 E119.55203
G1 X-49.410 Y21.688 E119.58381
G1 X-50.870 Y20.852 E119.78570
G1 X-52.232 Y19.878 E119.98663
G1 X-52.617 Y19.565 E120.04617
G1 X-53.755 Y18.533 E120.23052
G1 X-53.901 Y18.387 E120.25530
G1 X-54.733 Y17.459 E120.40486
G1 X-55.243 Y16.850 E120.50018
G1 X-56.030 Y15.753 E120.66219
G1 X-56.441 Y15.072 E120.75764
G1 X-57.090 Y13.931 E120.91516
G1 X-57.784 Y12.342 E121.12323
G1 X-58.009 Y11.648 E121.21078
G1 X-58.395 Y10.418 E121.36548
G1 X-58.750 Y8.638 E121.58329
G1 X-58.909 Y6.955 E121.78615
G1 X-58.926 Y6.282 E121.86693
G1 X-58.932 Y1.795 E122.40537
G1 X-58.931 Y-1.708 E122.82573
G1 X-58.932 Y-6.473 E123.39753
G1 X-58.881 Y-7.737 E123.54933
G1 X-58.647 Y-9.579 E123.77215
G1 X-58.292 Y-11.062 E123.95514
G1 X-58.186 Y-11.460 E124.00456
G1 X-57.778 Y-12.623 E124.15246
G1 X-57.544 Y-13.232 E124.23075
G1 X-57.077 Y-14.250 E124.36515
G1 X-56.544 Y-15.249 E124.50103
G1 X-56.041 Y-16.086 E124.61821
G1 X-55.658 Y-16.659 E124.70092
G1 X-55.506 Y-16.885 E124.73360
G1 X-55.068 Y-17.477 E124.82197
G1 X-54.644 Y-18.009 E124.90360
G1 X-54.196 Y-18.535 E124.98651
G1 X-53.745 Y-19.034 E125.06723
G1 X-53.193 Y-19.585 E125.16082
G1 X-52.696 Y-20.039 E125.24160
G1 X-52.409 Y-20.296 E125.28783
G1 X-51.888 Y-20.718 E125.36828
G1 X-51.196 Y-21.232 E125.47173
G1 X-50.500 Y-21.696 E125.57210
G1 X-49.626 Y-22.213 E125.69396
G1 X-48.709 Y-22.681 E125.81750
G1 X-48.100 Y-22.946 E125.89720
G1 X-47.287 Y-23.261 E126.00183
G1 X-46.640 Y-23.472 E126.08349
G1 X-45.743 Y-23.723 E126.19527
G1 X-45.129 Y-23.857 E126.27068
G1 X-44.500 Y-23.980 E126.34759
G1 X-43.743 Y-24.081 E126.43924
G1 X-42.998 Y-24.148 E126.52900
G1 X-41.957 Y-24.187 E126.65400
G1 X41.934 Y-24.187 E136.72092
G1 X42.655 Y-24.170 E136.80747
G1 X43.364 Y-24.119 E136.89277
G1 X44.237 Y-24.019 E136.99821
G1 X45.035 Y-23.880 E137.09541
G1 X45.847 Y-23.697 E137.19530
G1 X46.732 Y-23.449 E137.30559
