;FLAVOR:UltiGCode
;TIME:5370
;MATERIAL:11468
;MATERIAL2:0
;NOZZLE_DIAMETER:0.400000
;NOZZLE_DIAMETER2:0.400000

;Layer count: 92
;LAYER:0
M107
G0 F9000 X28.060 Y24.183 Z0.300
;TYPE:SKIRT
G1 F1200 X-28.069 Y24.184 E6.73548
G1 X-28.784 Y24.176 E6.82129
G1 X-29.610 Y24.175 E6.92041
G1 X-30.395 Y24.168 E7.01461
G1 X-33.174 Y24.129 E7.34812
G1 X-33.733 Y24.111 E7.41524
G1 X-34.449 Y24.087 E7.50121
G1 X-35.117 Y24.065 E7.58141
G1 X-36.854 Y24.004 E7.78998
G1 X-37.938 Y23.939 E7.92029
G1 X-39.610 Y23.837 E8.12130
G1 X-40.169 Y23.802 E8.18852
G1 X-41.036 Y23.724 E8.29298
G1 X-43.194 Y23.526 E8.55302
G1 X-44.318 Y23.364 E8.68930
G1 X-45.047 Y23.241 E8.77801
G1 X-45.736 Y23.039 E8.86417
G1 X-45.736 Y23.040 E8.86429
G1 X-47.449 Y22.552 E9.07803
G1 X-48.193 Y22.233 E9.17517
G1 X-49.795 Y21.482 E9.38749
G1 X-50.569 Y21.031 E9.49498
G1 X-50.978 Y20.719 E9.55672
G1 X-52.281 Y19.830 E9.74600
G1 X-52.624 Y19.567 E9.79787
G1 X-53.157 Y19.047 E9.88722
G1 X-54.425 Y17.843 E10.09705
G1 X-54.931 Y17.209 E10.19439
G1 X-56.002 Y15.801 E10.40668
G1 X-56.436 Y15.096 E10.50602
G1 X-57.423 Y13.195 E10.76306
G1 X-57.613 Y12.774 E10.81848
G1 X-57.810 Y12.151 E10.89689
G1 X-58.395 Y10.439 E11.11399
G1 X-58.546 Y9.628 E11.21299
G1 X-58.848 Y7.858 E11.42846
G1 X-58.906 Y6.601 E11.57946
G1 X-58.933 Y5.071 E11.76308
G1 X-58.932 Y1.105 E12.23900
G1 X-58.933 Y-6.529 E13.15508
G1 X-58.782 Y-8.543 E13.39744
G1 X-58.746 Y-9.022 E13.45509
G1 X-58.530 Y-9.930 E13.56709
G1 X-58.080 Y-11.808 E13.79883
G1 X-57.257 Y-13.827 E14.06046
G1 X-57.070 Y-14.273 E14.11849
G1 X-56.426 Y-15.452 E14.27971
G1 X-55.815 Y-16.420 E14.41707
G1 X-55.557 Y-16.812 E14.47338
G1 X-54.683 Y-17.967 E14.64719
G1 X-53.937 Y-18.829 E14.78399
G1 X-53.088 Y-19.678 E14.92807
G1 X-52.491 Y-20.223 E15.02507
G1 X-51.679 Y-20.883 E15.15064
G1 X-50.483 Y-21.711 E15.32520
G1 X-49.695 Y-22.166 E15.43439
G1 X-48.783 Y-22.642 E15.55784
G1 X-47.904 Y-23.027 E15.67299
G1 X-46.463 Y-23.533 E15.85626
G1 X-45.746 Y-23.717 E15.94509
G1 X-44.997 Y-23.891 E16.03737
G1 X-44.038 Y-24.037 E16.15377
G1 X-43.527 Y-24.107 E16.21566
G1 X-42.121 Y-24.186 E16.38465
G1 X-40.082 Y-24.188 E16.62933
G1 X41.950 Y-24.188 E26.47317
G1 X42.743 Y-24.162 E26.56838
G1 X43.738 Y-24.085 E26.68814
G1 X44.004 Y-24.045 E26.72042
G1 X45.189 Y-23.854 E26.86445
G1 X45.906 Y-23.673 E26.95319
G1 X46.622 Y-23.486 E27.04199
G1 X47.759 Y-23.082 E27.18679
G1 X48.443 Y-22.797 E27.27571
G1 X49.380 Y-22.350 E27.40029
G1 X50.646 Y-21.609 E27.57632
G1 X51.311 Y-21.140 E27.67397
G1 X51.893 Y-20.717 E27.76031
G1 X52.815 Y-19.929 E27.90585
G1 X53.271 Y-19.506 E27.98049
G1 X53.449 Y-19.338 E28.00986
G1 X53.658 Y-19.098 E28.04805
G1 X54.274 Y-18.448 E28.15551
G1 X54.544 Y-18.136 E28.20503
G1 X54.743 Y-17.867 E28.24518
G1 X55.313 Y-17.151 E28.35500
G1 X55.706 Y-16.582 E28.43798
G1 X56.325 Y-15.626 E28.57465
G1 X56.848 Y-14.680 E28.70437
G1 X57.072 Y-14.273 E28.76011
G1 X57.394 Y-13.499 E28.86071
G1 X58.055 Y-11.916 E29.06657
G1 X58.243 Y-11.127 E29.16390
G1 X58.634 Y-9.491 E29.36575
G1 X58.746 Y-9.021 E29.42372
G1 X58.813 Y-8.103 E29.53418
G1 X58.814 Y-8.103 E29.53430
G1 X58.933 Y-6.530 E29.72360
G1 X58.932 Y-2.471 E30.21068
G1 X58.933 Y6.174 E31.24808
G1 X58.891 Y7.130 E31.36291
G1 X58.843 Y7.905 E31.45609
G1 X58.715 Y8.592 E31.53994
G1 X58.414 Y10.362 E31.75539
G1 X58.170 Y11.134 E31.85255
G1 X57.598 Y12.810 E32.06506
G1 X57.262 Y13.547 E32.16226
G1 X56.428 Y15.111 E32.37496
G1 X55.984 Y15.832 E32.47656
G1 X55.558 Y16.364 E32.55835
G1 X54.484 Y17.778 E32.77143
G1 X53.891 Y18.361 E32.87122
G1 X52.604 Y19.582 E33.08410
G1 X51.961 Y20.073 E33.18118
G1 X50.496 Y21.073 E33.39404
G1 X49.787 Y21.487 E33.49256
G1 X47.544 Y22.518 E33.78879
G1 X45.747 Y23.036 E34.01321
G1 X45.030 Y23.247 E34.10290
G1 X43.840 Y23.432 E34.24741
G1 X43.196 Y23.525 E34.32550
G1 X40.078 Y23.810 E34.70122
G1 X38.598 Y23.898 E34.87913
G1 X38.095 Y23.928 E34.93960
G1 X38.095 Y23.927 E34.93972
G1 X36.741 Y24.009 E35.10249
G1 X35.759 Y24.043 E35.22041
G1 X33.271 Y24.124 E35.51912
G1 X31.957 Y24.148 E35.67683
G1 X28.772 Y24.179 E36.05905
G1 X28.060 Y24.183 E36.14449
G10
G1 Z0.700
G0 F9000 X28.049 Y20.783
;TYPE:WALL-OUTER
G1 Z0.300
G11
G1 F1200 X-28.049 Y20.784 E42.87625
G1 X-28.746 Y20.776 E42.95990
G1 X-29.591 Y20.775 E43.06130
G1 X-33.094 Y20.730 E43.48169
G1 X-36.690 Y20.607 E43.91346
G1 X-39.914 Y20.411 E44.30106
G1 X-42.790 Y20.149 E44.64761
G1 X-43.795 Y20.004 E44.76945
G1 X-44.283 Y19.922 E44.82884
G1 X-44.805 Y19.770 E44.89408
G1 X-46.304 Y19.344 E45.08108
G1 X-46.803 Y19.129 E45.14628
G1 X-48.211 Y18.469 E45.33288
G1 X-48.677 Y18.198 E45.39757
G1 X-50.283 Y17.077 E45.63260
G1 X-50.395 Y16.991 E45.64954
G1 X-50.781 Y16.614 E45.71429
G1 X-51.916 Y15.537 E45.90205
G1 X-52.251 Y15.117 E45.96652
G1 X-53.195 Y13.876 E46.15362
G1 X-53.474 Y13.423 E46.21747
G1 X-54.365 Y11.705 E46.44970
G1 X-54.432 Y11.557 E46.46920
G1 X-54.592 Y11.052 E46.53277
G1 X-55.097 Y9.577 E46.71985
G1 X-55.199 Y9.029 E46.78674
G1 X-55.460 Y7.495 E46.97347
G1 X-55.507 Y6.489 E47.09432
G1 X-55.533 Y5.043 E47.26787
G1 X-55.533 Y-6.409 E48.64211
G1 X-55.377 Y-8.492 E48.89277
G1 X-54.833 Y-10.767 E49.17347
G1 X-54.115 Y-12.528 E49.40167
G1 X-54.007 Y-12.787 E49.43535
G1 X-53.490 Y-13.733 E49.56472
G1 X-52.959 Y-14.575 E49.68417
G1 X-52.782 Y-14.843 E49.72271
G1 X-52.035 Y-15.831 E49.87134
G1 X-51.442 Y-16.516 E49.98007
G1 X-50.741 Y-17.217 E50.09903
G1 X-50.266 Y-17.650 E50.17616
G1 X-49.636 Y-18.162 E50.27358
G1 X-48.663 Y-18.837 E50.41568
G1 X-48.061 Y-19.184 E50.49906
G1 X-47.310 Y-19.576 E50.60072
G1 X-46.664 Y-19.859 E50.68535
G1 X-45.478 Y-20.276 E50.83621
G1 X-44.937 Y-20.414 E50.90321
G1 X-44.357 Y-20.549 E50.97467
G1 X-43.551 Y-20.672 E51.07251
G1 X-43.208 Y-20.719 E51.11406
G1 X-42.018 Y-20.786 E51.25708
G1 X41.890 Y-20.788 E61.32604
G1 X42.560 Y-20.766 E61.40649
G1 X43.350 Y-20.705 E61.50157
G1 X43.485 Y-20.685 E61.51795
G1 X44.496 Y-20.522 E61.64083
G1 X45.061 Y-20.380 E61.71074
G1 X45.621 Y-20.234 E61.78019
G1 X46.530 Y-19.910 E61.89599
G1 X47.056 Y-19.691 E61.96436
G1 X47.787 Y-19.342 E62.06157
G1 X48.805 Y-18.746 E62.20312
G1 X49.332 Y-18.375 E62.28046
G1 X49.792 Y-18.041 E62.34868
G1 X50.550 Y-17.392 E62.46842
G1 X50.949 Y-17.022 E62.53372
G1 X51.757 Y-16.161 E62.67541
G1 X52.576 Y-15.130 E62.83342
G1 X52.877 Y-14.694 E62.89700
G1 X53.411 Y-13.870 E63.01482
G1 X53.999 Y-12.806 E63.16070
G1 X54.811 Y-10.860 E63.41374
G1 X55.377 Y-8.492 E63.70590
G1 X55.533 Y-6.409 E63.95656
G1 X55.533 Y6.094 E65.45692
G1 X55.495 Y6.949 E65.55962
G1 X55.462 Y7.488 E65.62442
G1 X55.363 Y8.021 E65.68948
G1 X55.102 Y9.559 E65.87668
G1 X54.941 Y10.070 E65.94097
G1 X54.436 Y11.550 E66.12862
G1 X54.210 Y12.045 E66.19392
G1 X53.481 Y13.412 E66.37983
G1 X53.198 Y13.872 E66.44464
G1 X52.871 Y14.281 E66.50748
G1 X51.927 Y15.524 E66.69478
G1 X51.530 Y15.914 E66.76156
G1 X50.394 Y16.993 E66.94957
G1 X49.974 Y17.313 E67.01293
G1 X48.685 Y18.193 E67.20022
G1 X48.218 Y18.465 E67.26507
G1 X46.352 Y19.324 E67.51158
G1 X44.805 Y19.769 E67.70475
G1 X44.289 Y19.921 E67.76930
G1 X43.334 Y20.069 E67.88527
G1 X42.791 Y20.148 E67.95111
G1 X39.825 Y20.419 E68.30851
G1 X36.577 Y20.612 E68.69896
G1 X33.183 Y20.725 E69.10647
G1 X31.909 Y20.748 E69.25937
G1 X28.049 Y20.783 E69.72259
G0 F9000 X28.039 Y20.483
G0 X43.192 Y13.970
G0 X43.451 Y13.821
G1 F1200 X43.611 Y14.095 E69.76067
G1 X43.796 Y14.316 E69.79525
G1 X44.016 Y14.502 E69.82982
G1 X44.263 Y14.648 E69.86425
G1 X44.531 Y14.750 E69.89866
G1 X44.784 Y14.805 E69.92973
G1 X45.072 Y14.816 E69.96432
G1 X45.360 Y14.780 E69.99915
G1 X45.660 Y14.682 E70.03702
G1 X45.893 Y14.565 E70.06831
G1 X46.144 Y14.374 E70.10616
G1 X46.323 Y14.186 E70.13731
G1 X46.485 Y13.945 E70.17215
G1 X46.611 Y13.655 E70.21010
G1 X46.676 Y13.405 E70.24109
G1 X46.701 Y13.116 E70.27590
G1 X46.668 Y12.801 E70.31391
G1 X46.603 Y12.550 E70.34502
G1 X46.468 Y12.262 E70.38319
G1 X46.302 Y12.026 E70.41782
G1 X46.098 Y11.822 E70.45244
G1 X45.865 Y11.656 E70.48677
G1 X45.634 Y11.540 E70.51778
G1 X45.358 Y11.455 E70.55244
G1 X45.070 Y11.418 E70.58728
G1 X44.752 Y11.436 E70.62551
G1 X44.473 Y11.502 E70.65991
G1 X44.232 Y11.600 E70.69113
G1 X43.965 Y11.771 E70.72918
G1 X43.753 Y11.965 E70.76366
G1 X43.591 Y12.166 E70.79464
G1 X43.450 Y12.417 E70.82919
G1 X43.354 Y12.689 E70.86380
G1 X43.305 Y12.974 E70.89850
G1 X43.309 Y13.293 E70.93678
G1 X43.363 Y13.576 E70.97136
G1 X43.451 Y13.821 E71.00260
G0 F9000 X43.192 Y13.970
G0 X42.967 Y12.589
G0 X44.771 Y-10.895
G0 X44.784 Y-11.194
G1 F1200 X45.072 Y-11.183 E71.03718
G1 X45.360 Y-11.219 E71.07201
G1 X45.660 Y-11.317 E71.10988
G1 X45.893 Y-11.434 E71.14117
G1 X46.144 Y-11.625 E71.17902
G1 X46.323 Y-11.813 E71.21017
G1 X46.485 Y-12.054 E71.24502
G1 X46.611 Y-12.344 E71.28296
G1 X46.676 Y-12.594 E71.31396
G1 X46.701 Y-12.883 E71.34877
G1 X46.668 Y-13.198 E71.38677
G1 X46.603 Y-13.449 E71.41789
G1 X46.468 Y-13.737 E71.45605
G1 X46.302 Y-13.973 E71.49068
G1 X46.098 Y-14.177 E71.52530
G1 X45.865 Y-14.343 E71.55963
G1 X45.634 Y-14.459 E71.59065
G1 X45.358 Y-14.544 E71.62530
G1 X45.070 Y-14.581 E71.66015
G1 X44.752 Y-14.563 E71.69837
G1 X44.473 Y-14.497 E71.73277
G1 X44.232 Y-14.399 E71.76399
G1 X43.965 Y-14.228 E71.80204
G1 X43.753 Y-14.034 E71.83652
G1 X43.591 Y-13.833 E71.86750
G1 X43.450 Y-13.582 E71.90205
G1 X43.354 Y-13.310 E71.93666
G1 X43.305 Y-13.025 E71.97136
G1 X43.309 Y-12.706 E72.00965
G1 X43.363 Y-12.423 E72.04422
G1 X43.451 Y-12.178 E72.07546
G1 X43.611 Y-11.904 E72.11353
G1 X43.796 Y-11.683 E72.14812
G1 X44.016 Y-11.497 E72.18269
G1 X44.263 Y-11.351 E72.21712
G1 X44.531 Y-11.249 E72.25153
G1 X44.784 Y-11.194 E72.28260
G0 F9000 X44.771 Y-10.895
G0 X35.393 Y-11.271
G0 X35.095 Y-11.298
G1 F1200 X35.095 Y-12.937 E72.47928
G1 X35.096 Y-13.011 E72.48816
G1 X35.057 Y-13.488 E72.54559
G1 X34.944 Y-13.960 E72.60383
G1 X34.758 Y-14.409 E72.66215
G1 X34.504 Y-14.823 E72.72044
G1 X34.188 Y-15.192 E72.77874
G1 X33.819 Y-15.508 E72.83703
G1 X33.404 Y-15.762 E72.89542
G1 X32.956 Y-15.948 E72.95363
G1 X32.483 Y-16.061 E73.01199
G1 X32.007 Y-16.099 E73.06929
G1 X-32.008 Y-16.100 E80.75109
G1 X-32.484 Y-16.061 E80.80840
G1 X-32.956 Y-15.948 E80.86664
G1 X-33.404 Y-15.762 E80.92485
G1 X-33.819 Y-15.508 E80.98324
G1 X-34.188 Y-15.192 E81.04154
G1 X-34.504 Y-14.823 E81.09983
G1 X-34.758 Y-14.409 E81.15812
G1 X-34.944 Y-13.960 E81.21644
G1 X-35.057 Y-13.487 E81.27480
G1 X-35.095 Y-13.012 E81.33198
G1 X-35.095 Y-11.373 E81.52866
G1 X-35.096 Y-11.299 E81.53754
G1 X-35.053 Y-10.802 E81.59740
G1 X-34.930 Y-10.312 E81.65803
G1 X-34.729 Y-9.848 E81.71871
G1 X-34.455 Y-9.422 E81.77949
G1 X-34.115 Y-9.046 E81.84032
G1 X-33.718 Y-8.733 E81.90098
G1 X-33.277 Y-8.486 E81.96164
G1 X-32.808 Y-8.319 E82.02138
G1 X-11.141 Y-2.512 E84.71318
G1 X-10.743 Y-2.435 E84.76183
G1 X10.353 Y-2.408 E87.29335
G1 X10.751 Y-2.436 E87.34123
G1 X11.140 Y-2.513 E87.38881
G1 X32.809 Y-8.318 E90.08078
G1 X33.277 Y-8.486 E90.14045
G1 X33.718 Y-8.733 E90.20111
G1 X34.115 Y-9.046 E90.26177
G1 X34.455 Y-9.422 E90.32261
G1 X34.729 Y-9.848 E90.38339
G1 X34.930 Y-10.312 E90.44407
G1 X35.053 Y-10.802 E90.50469
G1 X35.095 Y-11.298 E90.56442
G0 F9000 X35.393 Y-11.271
G0 X35.082 Y-9.659
G0 X33.442 Y-8.122
G0 X10.367 Y-2.009
G0 X-11.230 Y-2.123
G0 X-33.941 Y-8.400
G0 X-35.309 Y-10.183
G0 X-43.001 Y-12.858
G0 X-43.299 Y-12.883
G1 F1200 X-43.331 Y-13.197 E90.60230
G1 X-43.396 Y-13.449 E90.63353
G1 X-43.531 Y-13.737 E90.67170
G1 X-43.697 Y-13.973 E90.70632
G1 X-43.901 Y-14.177 E90.74094
G1 X-44.134 Y-14.343 E90.77527
G1 X-44.365 Y-14.459 E90.80629
G1 X-44.641 Y-14.544 E90.84094
G1 X-44.929 Y-14.581 E90.87579
G1 X-45.247 Y-14.563 E90.91401
G1 X-45.526 Y-14.497 E90.94841
G1 X-45.767 Y-14.399 E90.97963
G1 X-46.034 Y-14.228 E91.01768
G1 X-46.246 Y-14.034 E91.05217
G1 X-46.408 Y-13.833 E91.08314
G1 X-46.549 Y-13.582 E91.11769
G1 X-46.645 Y-13.310 E91.15230
G1 X-46.694 Y-13.025 E91.18701
G1 X-46.690 Y-12.706 E91.22529
G1 X-46.636 Y-12.423 E91.25986
G1 X-46.548 Y-12.178 E91.29110
G1 X-46.388 Y-11.904 E91.32918
G1 X-46.203 Y-11.683 E91.36376
G1 X-45.983 Y-11.497 E91.39833
G1 X-45.736 Y-11.351 E91.43276
G1 X-45.468 Y-11.249 E91.46717
G1 X-45.215 Y-11.194 E91.49824
G1 X-44.927 Y-11.183 E91.53283
G1 X-44.639 Y-11.219 E91.56766
G1 X-44.339 Y-11.317 E91.60553
G1 X-44.106 Y-11.434 E91.63682
G1 X-43.855 Y-11.625 E91.67467
G1 X-43.676 Y-11.813 E91.70582
G1 X-43.514 Y-12.054 E91.74066
G1 X-43.388 Y-12.344 E91.77861
G1 X-43.323 Y-12.594 E91.80960
G1 X-43.299 Y-12.883 E91.84440
G0 F9000 X-43.001 Y-12.858
G0 X-44.892 Y11.122
G0 X-44.929 Y11.418
G1 F1200 X-45.247 Y11.436 E91.88262
G1 X-45.526 Y11.502 E91.91703
G1 X-45.767 Y11.600 E91.94825
G1 X-46.034 Y11.771 E91.98629
G1 X-46.246 Y11.965 E92.02078
G1 X-46.408 Y12.166 E92.05176
G1 X-46.549 Y12.417 E92.08630
G1 X-46.645 Y12.689 E92.12092
G1 X-46.694 Y12.974 E92.15562
G1 X-46.690 Y13.293 E92.19390
G1 X-46.636 Y13.576 E92.22848
G1 X-46.548 Y13.821 E92.25971
G1 X-46.388 Y14.095 E92.29779
G1 X-46.203 Y14.316 E92.33238
G1 X-45.983 Y14.502 E92.36695
G1 X-45.736 Y14.648 E92.40138
G1 X-45.468 Y14.750 E92.43579
G1 X-45.215 Y14.805 E92.46686
G1 X-44.927 Y14.816 E92.50144
G1 X-44.639 Y14.780 E92.53627
G1 X-44.339 Y14.682 E92.57414
G1 X-44.106 Y14.565 E92.60543
G1 X-43.855 Y14.374 E92.64328
G1 X-43.676 Y14.186 E92.67443
G1 X-43.514 Y13.945 E92.70928
G1 X-43.388 Y13.655 E92.74722
G1 X-43.323 Y13.405 E92.77822
G1 X-43.299 Y13.116 E92.81302
G1 X-43.331 Y12.802 E92.85089
G1 X-43.396 Y12.550 E92.88212
G1 X-43.531 Y12.262 E92.92029
G1 X-43.697 Y12.026 E92.95491
G1 X-43.901 Y11.822 E92.98953
G1 X-44.134 Y11.656 E93.02386
G1 X-44.365 Y11.540 E93.05488
G1 X-44.641 Y11.455 E93.08954
G1 X-44.929 Y11.418 E93.12438
G0 F9000 X-45.004 Y11.281
;TYPE:SKIN
G1 F1200 X-55.392 Y0.893 E94.88728
G0 F9000 X-55.392 Y1.458
G1 F1200 X-45.499 Y11.351 E96.56618
G0 F9000 X-45.898 Y11.518
G1 F1200 X-55.392 Y2.024 E98.17737
G0 F9000 X-55.392 Y2.590
G1 F1200 X-46.225 Y11.757 E99.73306
G0 F9000 X-46.495 Y12.053
G1 F1200 X-55.392 Y3.155 E101.24301
G0 F9000 X-55.392 Y3.721
G1 F1200 X-46.695 Y12.418 E102.71894
G0 F9000 X-46.816 Y12.863
G1 F1200 X-55.392 Y4.287 E104.17434
G0 F9000 X-55.392 Y4.852
G1 F1200 X-46.803 Y13.442 E105.63202
G0 F9000 X-46.961 Y13.471
G0 X-46.486 Y14.598
G0 X-45.356 Y15.080
G0 X-45.321 Y14.924
G1 F1200 X-39.981 Y20.264 E106.53825
G0 F9000 X-39.376 Y20.303
G1 F1200 X-44.745 Y14.934 E107.44940
G0 F9000 X-44.298 Y14.816
G1 F1200 X-38.774 Y20.339 E108.38677
G0 F9000 X-38.172 Y20.375
G1 F1200 X-43.936 Y14.612 E109.36487
G0 F9000 X-43.634 Y14.347
G1 F1200 X-37.570 Y20.412 E110.39405
G0 F9000 X-36.968 Y20.448
G1 F1200 X-43.396 Y14.020 E111.48492
G0 F9000 X-43.233 Y13.618
G1 F1200 X-36.374 Y20.476 E112.64884
G0 F9000 X-35.788 Y20.496
G1 F1200 X-43.159 Y13.126 E113.89966
G0 F9000 X-43.301 Y12.418
G1 F1200 X-35.203 Y20.516 E115.27393
G0 F9000 X-34.617 Y20.537
G1 F1200 X-55.392 Y-0.238 E118.79957
G0 F9000 X-55.392 Y0.327
G1 F1200 X-44.307 Y11.412 E120.68076
G0 F9000 X-44.237 Y11.270
G0 X-45.646 Y11.121
G0 X-46.914 Y12.253
G0 X-46.911 Y13.989
G0 X-48.036 Y18.221
G0 X-48.104 Y18.363
G1 F1200 X-53.607 Y12.860 E121.61465
G0 F9000 X-54.216 Y11.685
G1 F1200 X-47.038 Y18.863 E122.83279
G0 F9000 X-46.070 Y19.265
G1 F1200 X-54.525 Y10.810 E124.26765
G0 F9000 X-54.819 Y9.951
G1 F1200 X-45.279 Y19.491 E125.88665
G0 F9000 X-44.487 Y19.717
G1 F1200 X-55.022 Y9.182 E127.67449
G0 F9000 X-55.142 Y8.497
G1 F1200 X-43.774 Y19.865 E129.60371
G0 F9000 X-43.113 Y19.960
G1 F1200 X-55.261 Y7.812 E131.66529
G0 F9000 X-55.333 Y7.174
G1 F1200 X-42.470 Y20.037 E133.84822
G0 F9000 X-41.847 Y20.094
G1 F1200 X-55.361 Y6.581 E136.14153
