;FLAVOR:UltiGCode
;TIME:5375
;MATERIAL:10316
;MATERIAL2:0
;NOZZLE_DIAMETER:0.400000
;NOZZLE_DIAMETER2:0.400000

;Layer count: 92
;LAYER:0
M107
G0 F9000 X28.060 Y24.183 Z0.300
;TYPE:SKIRT
G1 F1200 X-28.069 Y24.184 E6.73548
G1 X-28.803 Y24.176 E6.82357
G1 X-29.608 Y24.175 E6.92017
G1 X-30.376 Y24.168 E7.01233
G1 X-33.165 Y24.130 E7.34704
G1 X-34.330 Y24.090 E7.48692
G1 X-35.127 Y24.064 E7.58261
G1 X-36.849 Y24.004 E7.78938
G1 X-37.934 Y23.940 E7.91981
G1 X-40.101 Y23.807 E8.18033
G1 X-40.718 Y23.753 E8.25466
G1 X-41.962 Y23.639 E8.40456
G1 X-43.193 Y23.526 E8.55290
G1 X-44.318 Y23.364 E8.68930
G1 X-45.047 Y23.241 E8.77801
G1 X-45.736 Y23.039 E8.86417
G1 X-45.736 Y23.040 E8.86429
G1 X-47.449 Y22.552 E9.07803
G1 X-48.193 Y22.233 E9.17517
G1 X-49.795 Y21.482 E9.38749
G1 X-50.569 Y21.031 E9.49498
G1 X-50.978 Y20.719 E9.55671
G1 X-52.281 Y19.830 E9.74600
G1 X-52.624 Y19.567 E9.79787
G1 X-53.157 Y19.047 E9.88722
G1 X-54.425 Y17.843 E10.09705
G1 X-54.931 Y17.209 E10.19439
G1 X-56.002 Y15.801 E10.40668
G1 X-56.436 Y15.096 E10.50602
G1 X-57.423 Y13.195 E10.76306
G1 X-57.613 Y12.774 E10.81848
G1 X-57.810 Y12.151 E10.89689
G1 X-58.395 Y10.439 E11.11399
G1 X-58.546 Y9.628 E11.21299
G1 X-58.848 Y7.858 E11.42846
G1 X-58.907 Y6.581 E11.58186
G1 X-58.933 Y2.011 E12.13027
G1 X-58.932 Y-1.936 E12.60391
G1 X-58.933 Y-6.528 E13.15495
G1 X-58.782 Y-8.543 E13.39743
G1 X-58.746 Y-9.022 E13.45507
G1 X-58.530 Y-9.930 E13.56707
G1 X-58.080 Y-11.808 E13.79881
G1 X-57.257 Y-13.827 E14.06044
G1 X-57.071 Y-14.271 E14.11821
G1 X-56.438 Y-15.431 E14.27679
G1 X-55.816 Y-16.419 E14.41689
G1 X-55.571 Y-16.793 E14.47054
G1 X-54.694 Y-17.955 E14.64523
G1 X-53.945 Y-18.820 E14.78254
G1 X-53.083 Y-19.682 E14.92883
G1 X-52.499 Y-20.214 E15.02362
G1 X-51.690 Y-20.875 E15.14899
G1 X-50.487 Y-21.711 E15.32478
G1 X-49.686 Y-22.171 E15.43563
G1 X-48.787 Y-22.639 E15.55725
G1 X-47.914 Y-23.024 E15.67174
G1 X-47.712 Y-23.098 E15.69756
G1 X-46.454 Y-23.535 E15.85737
G1 X-45.735 Y-23.719 E15.94643
G1 X-44.994 Y-23.892 E16.03774
G1 X-44.032 Y-24.038 E16.15450
G1 X-43.520 Y-24.108 E16.21651
G1 X-42.123 Y-24.185 E16.38441
G1 X-41.811 Y-24.188 E16.42185
G1 X41.949 Y-24.188 E26.47305
G1 X42.721 Y-24.163 E26.56574
G1 X43.735 Y-24.086 E26.68777
G1 X45.170 Y-23.858 E26.86213
G1 X45.902 Y-23.674 E26.95270
G1 X46.605 Y-23.492 E27.03984
G1 X47.760 Y-23.081 E27.18696
G1 X48.433 Y-22.802 E27.27438
G1 X49.371 Y-22.354 E27.39912
G1 X50.639 Y-21.614 E27.57530
G1 X51.310 Y-21.141 E27.67381
G1 X51.889 Y-20.722 E27.75958
G1 X52.822 Y-19.923 E27.90698
G1 X53.324 Y-19.456 E27.98926
G1 X54.120 Y-18.624 E28.12743
G1 X54.518 Y-18.165 E28.20033
G1 X55.319 Y-17.142 E28.35625
G1 X55.707 Y-16.578 E28.43840
G1 X56.328 Y-15.619 E28.57550
G1 X56.850 Y-14.678 E28.70463
G1 X57.073 Y-14.272 E28.76021
G1 X57.394 Y-13.499 E28.86065
G1 X58.055 Y-11.916 E29.06651
G1 X58.243 Y-11.127 E29.16384
G1 X58.634 Y-9.491 E29.36569
G1 X58.746 Y-9.021 E29.42367
G1 X58.813 Y-8.103 E29.53412
G1 X58.814 Y-8.103 E29.53424
G1 X58.933 Y-6.530 E29.72354
G1 X58.933 Y6.174 E31.24802
G1 X58.891 Y7.130 E31.36285
G1 X58.843 Y7.905 E31.45603
G1 X58.715 Y8.592 E31.53989
G1 X58.414 Y10.362 E31.75534
G1 X58.170 Y11.134 E31.85249
G1 X57.598 Y12.810 E32.06500
G1 X57.262 Y13.547 E32.16220
G1 X56.428 Y15.111 E32.37490
G1 X55.984 Y15.832 E32.47651
G1 X55.558 Y16.364 E32.55829
G1 X54.484 Y17.778 E32.77137
G1 X53.891 Y18.361 E32.87116
G1 X52.604 Y19.582 E33.08404
G1 X51.961 Y20.073 E33.18113
G1 X50.496 Y21.073 E33.39398
G1 X49.787 Y21.487 E33.49250
G1 X47.544 Y22.518 E33.78873
G1 X45.747 Y23.036 E34.01315
G1 X45.030 Y23.247 E34.10284
G1 X43.840 Y23.432 E34.24736
G1 X43.197 Y23.525 E34.32532
G1 X42.313 Y23.607 E34.43185
G1 X40.088 Y23.809 E34.69995
G1 X38.592 Y23.898 E34.87979
G1 X36.744 Y24.009 E35.10195
G1 X35.790 Y24.041 E35.21649
G1 X33.281 Y24.123 E35.51774
G1 X31.985 Y24.148 E35.67328
G1 X28.793 Y24.179 E36.05634
G1 X28.060 Y24.183 E36.14430
G10
G1 Z0.700
G0 F9000 X28.049 Y20.783
;TYPE:WALL-OUTER
G1 Z0.300
G11
G1 F1200 X-28.049 Y20.784 E42.87606
G1 X-28.766 Y20.776 E42.96211
G1 X-29.589 Y20.775 E43.06087
G1 X-33.081 Y20.731 E43.47994
G1 X-36.687 Y20.607 E43.91292
G1 X-39.851 Y20.416 E44.29329
G1 X-42.790 Y20.149 E44.64742
G1 X-43.795 Y20.004 E44.76927
G1 X-44.283 Y19.922 E44.82865
G1 X-44.805 Y19.770 E44.89389
G1 X-46.304 Y19.344 E45.08090
G1 X-46.803 Y19.129 E45.14610
G1 X-48.211 Y18.469 E45.33270
G1 X-48.677 Y18.198 E45.39739
G1 X-50.283 Y17.077 E45.63241
G1 X-50.395 Y16.991 E45.64936
G1 X-50.781 Y16.614 E45.71410
G1 X-51.916 Y15.537 E45.90186
G1 X-52.251 Y15.117 E45.96633
G1 X-53.195 Y13.876 E46.15344
G1 X-53.474 Y13.423 E46.21728
G1 X-54.365 Y11.705 E46.44952
G1 X-54.432 Y11.557 E46.46901
G1 X-54.592 Y11.052 E46.53258
G1 X-55.097 Y9.577 E46.71967
G1 X-55.199 Y9.029 E46.78656
G1 X-55.460 Y7.495 E46.97329
G1 X-55.507 Y6.489 E47.09414
G1 X-55.533 Y2.002 E47.63259
G1 X-55.533 Y-6.409 E48.64191
G1 X-55.377 Y-8.492 E48.89257
G1 X-54.833 Y-10.767 E49.17326
G1 X-54.115 Y-12.528 E49.40147
G1 X-54.007 Y-12.787 E49.43515
G1 X-53.501 Y-13.715 E49.56198
G1 X-52.957 Y-14.579 E49.68450
G1 X-52.049 Y-15.816 E49.86864
G1 X-51.450 Y-16.507 E49.97838
G1 X-50.737 Y-17.220 E50.09938
G1 X-50.280 Y-17.636 E50.17354
G1 X-49.635 Y-18.163 E50.27349
G1 X-48.668 Y-18.834 E50.41473
G1 X-48.049 Y-19.190 E50.50042
G1 X-47.319 Y-19.570 E50.59917
G1 X-46.644 Y-19.868 E50.68772
G1 X-45.472 Y-20.277 E50.83667
G1 X-44.930 Y-20.415 E50.90379
G1 X-44.352 Y-20.550 E50.97502
G1 X-43.545 Y-20.673 E51.07298
G1 X-43.202 Y-20.720 E51.11452
G1 X-42.009 Y-20.786 E51.25790
G1 X41.891 Y-20.788 E61.32590
G1 X42.542 Y-20.767 E61.40406
G1 X43.331 Y-20.707 E61.49901
G1 X44.490 Y-20.523 E61.63983
G1 X45.060 Y-20.379 E61.71038
G1 X45.617 Y-20.235 E61.77942
G1 X46.532 Y-19.909 E61.89598
G1 X47.047 Y-19.695 E61.96290
G1 X47.780 Y-19.345 E62.06038
G1 X48.807 Y-18.746 E62.20305
G1 X49.333 Y-18.375 E62.28029
G1 X49.781 Y-18.050 E62.34671
G1 X50.561 Y-17.383 E62.46986
G1 X50.941 Y-17.030 E62.53210
G1 X51.602 Y-16.339 E62.64685
G1 X51.896 Y-15.999 E62.70079
G1 X52.574 Y-15.134 E62.83267
G1 X52.877 Y-14.693 E62.89688
G1 X53.414 Y-13.863 E63.01551
G1 X54.002 Y-12.799 E63.16139
G1 X54.811 Y-10.860 E63.41351
G1 X55.377 Y-8.492 E63.70567
G1 X55.533 Y-6.409 E63.95633
G1 X55.533 Y6.094 E65.45669
G1 X55.495 Y6.949 E65.55939
G1 X55.462 Y7.488 E65.62420
G1 X55.363 Y8.021 E65.68925
G1 X55.102 Y9.559 E65.87645
G1 X54.941 Y10.070 E65.94074
G1 X54.436 Y11.550 E66.12839
G1 X54.210 Y12.045 E66.19369
G1 X53.481 Y13.412 E66.37960
G1 X53.198 Y13.872 E66.44441
G1 X52.871 Y14.281 E66.50725
G1 X51.927 Y15.524 E66.69455
G1 X51.530 Y15.914 E66.76133
G1 X50.394 Y16.993 E66.94934
G1 X49.974 Y17.313 E67.01270
G1 X48.685 Y18.193 E67.19999
G1 X48.218 Y18.465 E67.26484
G1 X46.352 Y19.324 E67.51135
G1 X44.805 Y19.769 E67.70452
G1 X44.289 Y19.921 E67.76907
G1 X43.334 Y20.069 E67.88504
G1 X42.791 Y20.148 E67.95088
G1 X39.836 Y20.418 E68.30696
G1 X36.582 Y20.612 E68.69813
G1 X33.191 Y20.724 E69.10528
G1 X31.935 Y20.748 E69.25602
G1 X28.049 Y20.783 E69.72236
G0 F9000 X28.039 Y20.483
G0 X35.006 Y18.256
G0 X35.008 Y17.957
G1 F1200 X35.720 Y17.900 E69.80808
G1 X35.799 Y17.891 E69.81762
G1 X36.514 Y17.719 E69.90587
G1 X37.232 Y17.426 E69.99892
G1 X37.904 Y17.020 E70.09314
G1 X38.500 Y16.515 E70.18688
G1 X39.024 Y15.912 E70.28274
G1 X39.418 Y15.269 E70.37324
G1 X39.738 Y14.514 E70.47164
G1 X39.920 Y13.752 E70.56565
G1 X39.981 Y12.982 E70.65834
G1 X39.981 Y-11.988 E73.65474
G1 X39.925 Y-12.701 E73.74056
G1 X39.918 Y-12.778 E73.74984
G1 X39.744 Y-13.493 E73.83815
G1 X39.452 Y-14.213 E73.93138
G1 X39.046 Y-14.885 E74.02560
G1 X38.541 Y-15.481 E74.11934
G1 X37.936 Y-16.004 E74.21530
G1 X37.294 Y-16.398 E74.30569
G1 X36.540 Y-16.719 E74.40403
G1 X35.778 Y-16.901 E74.49805
G1 X35.008 Y-16.962 E74.59073
G1 X-35.008 Y-16.963 E82.99265
G1 X-35.720 Y-16.907 E83.07836
G1 X-35.799 Y-16.898 E83.08790
G1 X-36.514 Y-16.725 E83.17618
G1 X-37.232 Y-16.432 E83.26923
G1 X-37.904 Y-16.026 E83.36345
G1 X-38.500 Y-15.522 E83.45711
G1 X-39.024 Y-14.918 E83.55307
G1 X-39.418 Y-14.275 E83.64356
G1 X-39.738 Y-13.520 E83.74196
G1 X-39.920 Y-12.759 E83.83586
G1 X-39.982 Y-11.989 E83.92856
G1 X-39.983 Y-11.819 E83.94896
G1 X-39.982 Y12.982 E86.92508
G1 X-39.925 Y13.695 E87.01091
G1 X-39.918 Y13.772 E87.02019
G1 X-39.744 Y14.487 E87.10849
G1 X-39.452 Y15.207 E87.20173
G1 X-39.046 Y15.879 E87.29594
G1 X-38.541 Y16.474 E87.38959
G1 X-37.937 Y16.998 E87.48555
G1 X-37.294 Y17.392 E87.57604
G1 X-36.540 Y17.712 E87.67433
G1 X-35.779 Y17.894 E87.76823
G1 X-35.008 Y17.956 E87.86105
G1 X35.008 Y17.957 E96.26297
G0 F9000 X35.006 Y18.256
G0 X37.411 Y17.784
G0 X38.783 Y16.799
G0 X43.192 Y13.970
G0 X43.451 Y13.821
G1 F1200 X43.611 Y14.095 E96.30104
G1 X43.796 Y14.316 E96.33563
G1 X44.016 Y14.502 E96.37020
G1 X44.263 Y14.648 E96.40463
G1 X44.531 Y14.750 E96.43904
G1 X44.784 Y14.805 E96.47011
G1 X45.072 Y14.816 E96.50469
G1 X45.360 Y14.780 E96.53952
G1 X45.660 Y14.682 E96.57739
G1 X45.893 Y14.565 E96.60868
G1 X46.144 Y14.374 E96.64653
G1 X46.323 Y14.186 E96.67768
G1 X46.485 Y13.945 E96.71253
G1 X46.611 Y13.655 E96.75047
G1 X46.676 Y13.405 E96.78147
G1 X46.701 Y13.116 E96.81628
G1 X46.668 Y12.801 E96.85428
G1 X46.603 Y12.550 E96.88540
G1 X46.468 Y12.262 E96.92356
G1 X46.302 Y12.026 E96.95819
G1 X46.098 Y11.822 E96.99281
G1 X45.865 Y11.656 E97.02714
G1 X45.634 Y11.540 E97.05816
G1 X45.358 Y11.455 E97.09281
G1 X45.070 Y11.418 E97.12766
G1 X44.752 Y11.436 E97.16588
G1 X44.473 Y11.502 E97.20028
G1 X44.232 Y11.600 E97.23150
G1 X43.965 Y11.771 E97.26955
G1 X43.753 Y11.965 E97.30403
G1 X43.591 Y12.166 E97.33501
G1 X43.450 Y12.417 E97.36956
G1 X43.354 Y12.689 E97.40417
G1 X43.305 Y12.974 E97.43887
G1 X43.309 Y13.293 E97.47716
G1 X43.363 Y13.576 E97.51173
G1 X43.451 Y13.821 E97.54297
G0 F9000 X43.192 Y13.970
G0 X42.967 Y12.589
G0 X44.771 Y-10.895
G0 X44.784 Y-11.194
G1 F1200 X45.072 Y-11.183 E97.57755
G1 X45.360 Y-11.219 E97.61238
G1 X45.660 Y-11.317 E97.65026
G1 X45.893 Y-11.434 E97.68154
G1 X46.144 Y-11.625 E97.71939
G1 X46.323 Y-11.813 E97.75054
G1 X46.485 Y-12.054 E97.78539
G1 X46.611 Y-12.344 E97.82333
G1 X46.676 Y-12.594 E97.85433
G1 X46.701 Y-12.883 E97.88914
G1 X46.668 Y-13.198 E97.92715
G1 X46.603 Y-13.449 E97.95826
G1 X46.468 Y-13.737 E97.99643
G1 X46.302 Y-13.973 E98.03105
G1 X46.098 Y-14.177 E98.06567
G1 X45.865 Y-14.343 E98.10000
G1 X45.634 Y-14.459 E98.13102
G1 X45.358 Y-14.544 E98.16568
G1 X45.070 Y-14.581 E98.20052
G1 X44.752 Y-14.563 E98.23874
G1 X44.473 Y-14.497 E98.27314
G1 X44.232 Y-14.399 E98.30436
G1 X43.965 Y-14.228 E98.34241
G1 X43.753 Y-14.034 E98.37690
G1 X43.591 Y-13.833 E98.40787
G1 X43.450 Y-13.582 E98.44242
G1 X43.354 Y-13.310 E98.47704
G1 X43.305 Y-13.025 E98.51174
G1 X43.309 Y-12.706 E98.55002
G1 X43.363 Y-12.423 E98.58459
G1 X43.451 Y-12.178 E98.61583
G1 X43.611 Y-11.904 E98.65391
G1 X43.796 Y-11.683 E98.68849
G1 X44.016 Y-11.497 E98.72306
G1 X44.263 Y-11.351 E98.75749
G1 X44.531 Y-11.249 E98.79190
G1 X44.784 Y-11.194 E98.82297
G0 F9000 X44.771 Y-10.895
G0 X40.312 Y-12.844
G0 X39.351 Y-15.149
G0 X37.477 Y-16.754
G0 X35.023 Y-17.361
G0 X-35.868 Y-17.293
G0 X-38.168 Y-16.331
G0 X-39.774 Y-14.458
G0 X-43.001 Y-12.858
G0 X-43.299 Y-12.883
G1 F1200 X-43.331 Y-13.197 E98.86085
G1 X-43.396 Y-13.449 E98.89208
G1 X-43.531 Y-13.737 E98.93025
G1 X-43.697 Y-13.973 E98.96487
G1 X-43.901 Y-14.177 E98.99949
G1 X-44.134 Y-14.343 E99.03382
G1 X-44.365 Y-14.459 E99.06484
G1 X-44.641 Y-14.544 E99.09950
G1 X-44.929 Y-14.581 E99.13434
G1 X-45.247 Y-14.563 E99.17256
G1 X-45.526 Y-14.497 E99.20696
G1 X-45.767 Y-14.399 E99.23818
G1 X-46.034 Y-14.228 E99.27623
G1 X-46.246 Y-14.034 E99.31072
G1 X-46.408 Y-13.833 E99.34169
G1 X-46.549 Y-13.582 E99.37624
G1 X-46.645 Y-13.310 E99.41086
G1 X-46.694 Y-13.025 E99.44556
G1 X-46.690 Y-12.706 E99.48384
G1 X-46.636 Y-12.423 E99.51841
G1 X-46.548 Y-12.178 E99.54965
G1 X-46.388 Y-11.904 E99.58773
G1 X-46.203 Y-11.683 E99.62231
G1 X-45.983 Y-11.497 E99.65688
G1 X-45.736 Y-11.351 E99.69131
G1 X-45.468 Y-11.249 E99.72572
G1 X-45.215 Y-11.194 E99.75679
G1 X-44.927 Y-11.183 E99.79138
G1 X-44.639 Y-11.219 E99.82621
G1 X-44.339 Y-11.317 E99.86408
G1 X-44.106 Y-11.434 E99.89537
G1 X-43.855 Y-11.625 E99.93322
G1 X-43.676 Y-11.813 E99.96437
G1 X-43.514 Y-12.054 E99.99921
G1 X-43.388 Y-12.344 E100.03716
G1 X-43.323 Y-12.594 E100.06815
G1 X-43.299 Y-12.883 E100.10295
G0 F9000 X-43.001 Y-12.858
G0 X-44.892 Y11.122
G0 X-44.929 Y11.418
G1 F1200 X-45.247 Y11.436 E100.14117
G1 X-45.526 Y11.502 E100.17558
G1 X-45.767 Y11.600 E100.20680
G1 X-46.034 Y11.771 E100.24484
G1 X-46.246 Y11.965 E100.27933
G1 X-46.408 Y12.166 E100.31031
G1 X-46.549 Y12.417 E100.34485
G1 X-46.645 Y12.689 E100.37947
G1 X-46.694 Y12.974 E100.41417
G1 X-46.690 Y13.293 E100.45245
G1 X-46.636 Y13.576 E100.48703
G1 X-46.548 Y13.821 E100.51826
G1 X-46.388 Y14.095 E100.55634
G1 X-46.203 Y14.316 E100.59093
G1 X-45.983 Y14.502 E100.62550
G1 X-45.736 Y14.648 E100.65993
G1 X-45.468 Y14.750 E100.69434
G1 X-45.215 Y14.805 E100.72541
G1 X-44.927 Y14.816 E100.75999
G1 X-44.639 Y14.780 E100.79482
G1 X-44.339 Y14.682 E100.83269
G1 X-44.106 Y14.565 E100.86398
G1 X-43.855 Y14.374 E100.90183
G1 X-43.676 Y14.186 E100.93298
G1 X-43.514 Y13.945 E100.96783
G1 X-43.388 Y13.655 E101.00577
G1 X-43.323 Y13.405 E101.03677
G1 X-43.299 Y13.116 E101.07157
G1 X-43.331 Y12.802 E101.10944
G1 X-43.396 Y12.550 E101.14067
G1 X-43.531 Y12.262 E101.17884
G1 X-43.697 Y12.026 E101.21346
G1 X-43.901 Y11.822 E101.24808
G1 X-44.134 Y11.656 E101.28241
G1 X-44.365 Y11.540 E101.31343
G1 X-44.641 Y11.455 E101.34809
G1 X-44.929 Y11.418 E101.38293
G0 F9000 X-45.004 Y11.281
;TYPE:SKIN
G1 F1200 X-55.377 Y0.907 E103.14337
G0 F9000 X-55.379 Y0.340
G1 F1200 X-44.307 Y11.412 E105.02235
G0 F9000 X-45.499 Y11.351
G1 F1200 X-55.376 Y1.475 E106.69845
G0 F9000 X-55.375 Y2.041
G1 F1200 X-45.898 Y11.518 E108.30675
G0 F9000 X-46.225 Y11.757
G1 F1200 X-55.374 Y2.608 E109.85939
G0 F9000 X-55.372 Y3.175
G1 F1200 X-46.495 Y12.053 E111.36595
G0 F9000 X-46.695 Y12.418
G1 F1200 X-55.372 Y3.742 E112.83840
G0 F9000 X-55.370 Y4.309
G1 F1200 X-46.816 Y12.863 E114.29006
G0 F9000 X-46.803 Y13.442
G1 F1200 X-55.369 Y4.876 E115.74376
G0 F9000 X-55.368 Y5.442
G1 F1200 X-40.604 Y20.206 E118.24929
G0 F9000 X-41.226 Y20.150
G1 F1200 X-55.367 Y6.009 E120.64910
G0 F9000 X-55.361 Y6.581
G1 F1200 X-41.848 Y20.093 E122.94225
G0 F9000 X-42.470 Y20.037
G1 F1200 X-55.333 Y7.174 E125.12517
G0 F9000 X-55.261 Y7.812
G1 F1200 X-43.113 Y19.960 E127.18676
G0 F9000 X-43.774 Y19.865
G1 F1200 X-55.142 Y8.497 E129.11597
G0 F9000 X-55.022 Y9.182
G1 F1200 X-44.487 Y19.717 E130.90382
G0 F9000 X-45.279 Y19.491
G1 F1200 X-54.819 Y9.951 E132.52281
G0 F9000 X-54.525 Y10.810
G1 F1200 X-46.070 Y19.265 E133.95767
G0 F9000 X-47.038 Y18.863
G1 F1200 X-54.216 Y11.685 E135.17582
G0 F9000 X-53.607 Y12.860
G1 F1200 X-48.104 Y18.363 E136.10971
G0 F9000 X-48.036 Y18.221
G0 X-49.681 Y17.126
G0 X-49.772 Y17.261
G1 F1200 X-52.579 Y14.454 E136.58607
G0 F9000 X-52.453 Y14.359
G0 X-45.356 Y15.080
G0 X-45.321 Y14.924
G1 F1200 X-39.981 Y20.263 E137.49222
G0 F9000 X-39.375 Y20.303
G1 F1200 X-44.745 Y14.934 E138.40345
G0 F9000 X-44.298 Y14.816
G1 F1200 X-38.773 Y20.340 E139.34099
G0 F9000 X-38.171 Y20.376
G1 F1200 X-43.936 Y14.612 E140.31926
G0 F9000 X-43.634 Y14.347
G1 F1200 X-37.569 Y20.412 E141.34852
G0 F9000 X-36.967 Y20.449
G1 F1200 X-43.396 Y14.020 E142.43956
G0 F9000 X-43.233 Y13.618
G1 F1200 X-36.374 Y20.477 E143.60357
G0 F9000 X-35.788 Y20.497
G1 F1200 X-43.159 Y13.126 E144.85447
G0 F9000 X-43.301 Y12.418
G1 F1200 X-35.202 Y20.517 E146.22892
